!!!OTL-incipit: ES WOLLT EIN JAEGER JAGEN, DREI STUNDEN VOR DEM TAGEN
!!!ARE: Europa, Mitteleuropa, Deutschland
!!!SCT: Z0219
!!!TXL: @@DE
!!!YEM: Copyright 1995, estate of Helmut Schaffrath.
**kern	**text
*ICvox	*
*M3/8	*
*k[f#]	*
*G:	*
!LO:TX:a:t=Deutſch.	!
!LO:TX:a:t=Jägerlied.	!
{8d	Es
=1	=1
8gL	wollt
8gJ	.
8g	ein
=2	=2
8b/	Jä-
8b/	.
8f#	-ger
=3	=3
4g	ja-
8b/	.
=4	=4
4a}	-gen,
{8d	drei
=5	=5
[8g	Stun-
8g]	.
8g	-den
=6	=6
(8b/	vor
8a)	.
8f#	dem
=7	=7
(4g	Ta-
8b/)	.
=8	=8
4a}	-gen,
{8d	ein
=9	=9
4g	Hirſchlein
8b/	.
=10	=10
8dd	o-
8b	-der
8g	ein
=11	=11
(8g	Reh,
8d)	.
8d	tra
=12	=12
8dL	ra
8B}	ra
{8dJ	ra
=13	=13
8dL	ra
8B	ra
8dJ	ra
=14	=14
8dL	ra
8B	ra
8dJ	ra
=15	=15
4g}	ra,
{8b/	ein
=16	=16
8ddL	Hirſchlein
8b	.
8gJ	.
=17	=17
8ccL	o-
8d	-der
8dJ	ein
=18	=18
4g}	Reh.
==	==
!!!AGN: Jaeger - Lied
!!!ONB: ESAC (Essen Associative Code) Database: ZUCCAL
!!!AMT: simple triple
!!!AIN: vox
!!!EED: Helmut Schaffrath
!!!EEV: 1.0
!!!GTL: III. Soldaten-, Jaeger-, Schiffer-, Fuhrmanns- und Handwerks-Lieder.
!!!URL-scan: https://www.digitale-sammlungen.de/de/view/bsb11160571?page=409
!!!ENC: Anna Maria Matuszewska
!!!EEV: 2025/01/29
*-	*-
